Sites/UniverseChariot/app/img/dest/order/image(2).svg

<svg width="137" height="136" viewBox="0 0 137 136" fill="none" xmlns="http://www.w3.org/2000/svg">
<path d="M38.4626 84.7444L55.2677 70.1095M38.4626 84.7444C38.4626 84.7444 37.6684 122.189 38.4626 123.243C39.2568 124.298 41.5061 125.683 41.5061 125.683M38.4626 84.7444C38.7288 81.1171 38.3553 79.7626 35.9485 79.6024H21.9884M55.2677 70.1095L41.3737 19.0852L68.897 12.0974M55.2677 70.1095L58.5758 81.8438H68.897M68.897 12.0974V3H134V133H105.021M68.897 12.0974V29.2373M68.897 81.8438V29.2373M68.897 81.8438L58.5758 41.6308C62.9145 39.5526 64.7914 37.4271 65.5889 29.2373H68.897M68.897 81.8438H79.3505M114.416 93.9736C120.371 95.2921 123.943 81.8438 114.416 81.8438C104.889 81.8438 79.3505 81.8438 79.3505 81.8438M114.416 93.9736C117.517 93.9736 122.356 93.9736 122.356 93.9736M114.416 93.9736C102.479 93.9736 83.8495 93.9736 83.8495 93.9736M122.356 93.9736C130.692 93.9736 130.03 106.763 122.356 106.763C114.681 106.763 114.416 106.763 114.416 106.763M122.356 93.9736C122.614 81.1529 123.017 61.144 123.017 61.144M114.416 106.763C122.356 105.84 124.076 120.475 114.416 120.475C104.757 120.475 108.69 120.475 105.021 120.475C96.7531 120.475 83.8495 120.475 83.8495 120.475M114.416 106.763H83.8495M105.021 133C105.021 133 52.7533 133 50.6364 133C48.5195 133 43.3589 129.968 41.5061 125.683M105.021 133C113.755 133 115.342 121.661 105.021 121.002M122.356 38.8621V26.9959C117.3 26.0019 115.224 24.6309 114.416 19.0852H89.4071C87.4062 23.9944 85.6225 26.1231 79.3505 26.9959V81.8438M123.017 48.4868V52.9696M41.5061 125.683C40.5796 130.399 39.4536 132.143 35.9485 133H8.02828C5.29155 132.819 4.13674 131.959 3 128.649V84.7444C3.2885 80.7107 4.59424 79.8311 8.02828 79.6024H21.9884M21.9884 79.6024V112.959M101.978 56.6613C115.21 56.6613 115.739 77.0974 101.978 77.7566C88.2162 78.4158 86.9339 56.9491 101.978 56.6613Z" stroke="white" stroke-width="6"/>
</svg>

<svg width="137" height="136" fill="none" xmlns="http://www.w3.org/2000/svg"><path d="M38.463 84.744L55.268 70.11M38.463 84.745s-.795 37.445 0 38.499c.794 1.055 3.043 2.44 3.043 2.44m-3.043-40.939c.266-3.627-.108-4.981-2.514-5.142h-13.96m33.279-9.493L41.374 19.085l27.523-6.988M55.267 70.11l3.309 11.735h10.321m0-69.747V3H134v130h-28.979M68.897 12.097v17.14m0 52.607V29.237m0 52.607L58.576 41.63c4.338-2.078 6.215-4.204 7.013-12.394h3.308m0 52.607H79.35m35.066 12.13c5.955 1.318 9.527-12.13 0-12.13H79.35m35.066 12.13h7.94m-7.94 0H83.85m38.506 0c8.336 0 7.674 12.789 0 12.789h-7.94m7.94-12.79l.661-32.829m-8.601 45.619c7.94-.923 9.66 13.712 0 13.712H83.85m30.566-13.712H83.85M105.02 133H50.636c-2.117 0-7.277-3.032-9.13-7.317M105.021 133c8.734 0 10.321-11.339 0-11.998m17.335-82.14V26.996c-5.056-.994-7.132-2.365-7.94-7.91H89.407c-2 4.908-3.784 7.037-10.056 7.91v54.848m43.666-33.357v4.483m-81.51 72.713c-.927 4.716-2.053 6.46-5.558 7.317H8.029c-2.737-.181-3.892-1.041-5.029-4.351V84.744c.288-4.033 1.594-4.913 5.028-5.142h13.96m0 0v33.357m79.99-56.298c13.232 0 13.761 20.436 0 21.096-13.762.659-15.044-20.808 0-21.096z" stroke="#fff" stroke-width="6"/></svg>
